addons/godot-flexbox/assets/light/ArrowReverseIcon.svg

<svg xmlns="http://www.w3.org/2000/svg" width="16" height="16" fill="none" data-wf-icon="ArrowReverseIcon" viewBox="0 0 24 24"><path fill="#474747" fill-rule="evenodd" d="m16.485 6 .015-4.5-6 6 6 6-.015-4.5V6ZM22.5 6h-6v3h6V6ZM7.515 15 7.5 10.5l6 6-6 6 .015-4.5v-3ZM1.5 18h6v-3h-6v3Z" clip-rule="evenodd"/></svg>

<svg data-wf-icon="ArrowReverseIcon" width="16" height="16" viewBox="0 0 24 24" fill="none" xmlns="http://www.w3.org/2000/svg"><path fill-rule="evenodd" clip-rule="evenodd" d="M16.485 6L16.5 1.5L10.5 7.5L16.5 13.5L16.485 9V6ZM22.5 6H16.5V9H22.5V6ZM7.515 15L7.5 10.5L13.5 16.5L7.5 22.5L7.515 18V15ZM1.5 18H7.5V15H1.5V18Z" fill="#474747"></path></svg>
